material/.icons/material/heart-box.svg

<svg xmlns="http://www.w3.org/2000/svg" viewBox="0 0 24 24"><path d="M5 3h14a2 2 0 012 2v14a2 2 0 01-2 2H5a2 2 0 01-2-2V5a2 2 0 012-2m7 14l.72-.66C15.3 14 17 12.46 17 10.57c0-1.54-1.21-2.75-2.75-2.75-.87 0-1.7.41-2.25 1.05a3.007 3.007 0 00-2.25-1.05C8.21 7.82 7 9.03 7 10.57c0 1.89 1.7 3.43 4.28 5.77L12 17z"/></svg>

<?xml version="1.0" encoding="UTF-8"?><!DOCTYPE svg PUBLIC "-//W3C//DTD SVG 1.1//EN" "http://www.w3.org/Graphics/SVG/1.1/DTD/svg11.dtd"><svg xmlns="http://www.w3.org/2000/svg" xmlns:xlink="http://www.w3.org/1999/xlink" version="1.1" id="mdi-heart-box" width="24" height="24" viewBox="0 0 24 24"><path d="M5,3H19A2,2 0 0,1 21,5V19A2,2 0 0,1 19,21H5A2,2 0 0,1 3,19V5A2,2 0 0,1 5,3M12,17L12.72,16.34C15.3,14 17,12.46 17,10.57C17,9.03 15.79,7.82 14.25,7.82C13.38,7.82 12.55,8.23 12,8.87C11.45,8.23 10.62,7.82 9.75,7.82C8.21,7.82 7,9.03 7,10.57C7,12.46 8.7,14 11.28,16.34L12,17Z" /></svg>
